X:1
T:Title
%%score { 1 | 2 }
L:1/8
Q:1/4=100
M:2/4
K:Eb
V:1 treble nm="Grand Piano"
V:2 bass 
V:1
 [GB]2 [EG]>[FA] | [GB]2 E>F | E2 D>C | D4 | [FA]2 [DF]>[EG] | [FA]2 D>F | E2 F>F | G4 | %8
w: E.~O.~Excell * *||||||||
 [GB]2 [EG]>[FA] | [GB]2 E>F | E2 D>C | D4 | [DF]2 [FA]2 | [EG]2 [DF]2 | E4- | E4 | c2 A>c | %17
w: |||||||||
 [Ece]2 [EBd]>[EAc] | [EGB]2 [B,EG]>[B,FA] | [B,GB]4 | [B,FA]2 [B,DF]>[B,EG] | [DFA]2 [DAc]>[DAc] | %22
w: |||||
 [EGB]2 [B,EG]>[B,FA] | [EGB]4 | [EAc]2 [CA]>[EAc] | [Ece]2 [EBd]>[EAc] | [EGB]2 [B,EG]>[B,GB] | %27
w: |||||
 [Ge]4 | [DF]2 [FA]2 | [EG]2 [DF]2 | E4- | E4 |] %32
w: |||||
V:2
 [E,B,]2 [E,B,]2 | [E,B,]2 [E,G,]>[E,A,D] | [B,,G,B,]2 [B,,A,B,]>[B,,A,B,] | [B,,A,B,]4 | %4
 [B,,B,]2 [B,,B,]>[B,,B,] | [B,,B,]2 [B,,A,B,]>[B,,A,B,] | [E,G,B,]2 [E,A,D]>[E,A,D] | [E,B,E]4 | %8
 [E,B,]2 [E,B,]2 | [E,B,]2 [E,G,]>[E,A,D] | [B,,G,B,]2 [B,,A,B,]>[B,,A,B,] | [B,,A,B,]4 | %12
 [B,,B,]2 [B,,B,]2 | [B,,B,]2 [B,,A,]2 | [E,G,]4- | [E,G,]4 | [A,EA]2 [A,C]>[A,EA] | %17
 A,2 A,>[K:bass]A, | E,2 E,>E, | E,4 | B,,2 B,,>B,, | B,,2 B,,>B,, | E,2 E,>E, | E,4 | A,2 A,>A, | %25
 A,2 A,>A, | E,2 E,>E, | [E,B,]4 | [B,,B,]2 [B,,B,]2 | [B,,B,]2 [B,,A,]2 | [E,G,]4- | [E,G,]4 |] %32

